Red Dwarf:d=4,o=6,b=160:g,c,e,g.,16g,a,8a.,16g,8a.,16b,c7,c,e,g.,16g,8f.,8e,8p,2a,16p,f,a,2c7,8c.7,16b,8a.,16b,2c7,2g,2a#,8a.,8a.5,8b.5,8c#.,8d.,8e.,2f,2g#,8g.,8g.,8a.,8b.,8c.7,8d7,p,8g.,8a.,8b.,8c.7,8d.7,c7,p,c
